X:1
T:Montgomery, 11.11.11.11
T:Attributed to John Stanley, ca. 1760
T:Montgomery, 11.11.11.11
T:Public Domain
C:Attributed to John Stanley, ca. 1760
Z:Public Domain
%%score ( 1 2 ) ( 3 4 )
L:1/8
M:3/4
K:D
V:1 treble 
V:2 treble 
V:3 bass 
V:4 bass 
V:1
 [Fd]2 | ([Fd]2 A2) [GB]2 | (B2 A2) [CG]2 | ([DF]2 E2) [B,D]2 | [CA]4 [CA]2 | ([DF]2 E2) D2 | %6
 ([CA]2 [Ec]2) [Ge]2 | ([Fd]2 [Ec]2) [DB]2 | [CA]4 [EA]2 | (F2 G2) [EA]2 | [Fd]2 [Fd]2 A2 | %11
 ([GB]2 [Gc]2) [Fd]2 | ([Fd]2 [Ec]2) [Ec]2 | ([Fd]2 [FA]2) [GB]2 | (A2 [CG]2) [DF]2 | %15
 ([EG]2 [DF]2) [CE]2 | D4 |] %17
V:2
 x2 | x6 | D4 x2 | x2 E2 x2 | x6 | x2 E2 x2 | x6 | x6 | x6 | D4 x2 | x6 | x6 | x6 | x6 | A2 x4 | %15
 x6 | D4 |] %17
V:3
!mf! [D,A,]2 | ([D,A,]2 [F,D]2) [G,D]2 | (G,2 [F,A,]2) [E,A,]2 | (D,2 C,2) (F,^G,) | %4
 [A,,A,]4 [A,,A,]2 | ([D,A,]2 [C,A,]2) [B,,^G,]2 | [A,,A,]4 [C,A,]2 | ([D,A,]2 [E,A,]2) [E,^G,]2 | %8
 [A,,A,]4!mp! [C,A,]2 | (A,2 B,2) [C,C]2 | [B,,D]2 [B,,D]2 [F,D]2 | ([G,D]2 [E,E]2) [D,A,]2 | %12
 [A,,A,]4!f! (A,G,) | (A,2 D2) [G,D]2 | ([F,D]2 [E,A,]2) [D,A,]2 | ([G,,B,]2 [A,,A,]2) [A,,G,]2 | %16
 [D,F,]4 |] %17
V:4
 x2 | x6 | G,2 x4 | A,4 B,,2 | x6 | x6 | x6 | x6 | x6 | D,4 x2 | x6 | x6 | x4 A,2 | D,4 x2 | x6 | %15
 x6 | x4 |] %17

